!!!COA: Josquin des Prez
!!!CDT: ~1450-1521/08/27
!!!OTL@@FRA: Fortuna desperata
!!!AGN: Chanson
!!!SCT: NJE 27.11
!!!SCA: New Josquin Edition 27.11
!!!voices: 3
**kern	**kern	**kern
*staff3	*staff2	*staff1
*Ivox	*Ivox	*Ivox
*I"Contra	*I"Tenor	*I"Superius
*I'C	*I'T	*I'S
*clefF4	*clefGv2	*clefG2
*k[b-]	*k[b-]	*k[b-]
*M2/1	*M2/1	*M2/1
*met(C|)	*met(C|)	*met(C|)
=1-	=1-	=1-
!	!	!LO:TX:X=-30:Z=10:t=NB&colon; Upper two vv. by composer of "Fortuna desparata" (probably Felice)
1F	0F	0f
2D\	.	.
[2BB-/	.	.
=2	=2	=2
4BB-/]	1F	1f
4C/	.	.
2D\	.	.
2C/	1G	1e
2BB-/	.	.
=3	=3	=3
2AA/	0A	0c
2.A\	.	.
4G\	.	.
[2F\	.	.
=4	=4	=4
2F\]	0G	1r
4E\	.	.
4D\	.	.
1E	.	1g
=5	=5	=5
2F\	0F	0a
2.c\	.	.
4B-\	.	.
4A\	.	.
4G\	.	.
=6	=6	=6
2F\	1r	1a
2.A\	.	.
.	1c	1a
4G\	.	.
4F\	.	.
4E\	.	.
=7	=7	=7
2D\	0d	0a
2.d\	.	.
4c\	.	.
4B-\	.	.
4A\	.	.
=8	=8	=8
4B-\	1B-	0g
4A\	.	.
4G\	.	.
4F\	.	.
1E	1c	.
=9	=9	=9
1D	[0d	[0f
2r	.	.
[2d\	.	.
=10	=10	=10
4d\]	1d]	1f]
4c\	.	.
4B-\	.	.
4A\	.	.
2d\	1B-	1d
[2G\	.	.
=11	=11	=11
4G\]	0B-	0d
4F\	.	.
4E\	.	.
4D\	.	.
1G	.	.
=12	=12	=12
2r	1c	1e
2.c\	.	.
.	1B-	1d
4B-\	.	.
4A\	.	.
4G\	.	.
=13	=13	=13
2c\	1A	1f
2.F\	.	.
.	1F	[1f
4E\	.	.
4D\	.	.
4C/	.	.
=14	=14	=14
2F\	0G	1f]
4E\	.	.
4D\	.	.
1C	.	1e
=15	=15	=15
2r	[0F	0f
2.c\	.	.
4B-\	.	.
4A\	.	.
4G\	.	.
=16	=16	=16
2c\	0F_	0r
2.A\	.	.
4G\	.	.
4F\	.	.
4E\	.	.
=17	=17	=17
2A\	0F]	[0cc
2.F\	.	.
4E\	.	.
4D\	.	.
4C/	.	.
=18	=18	=18
1F	0r	1cc]
2r	.	1a
[2d\	.	.
=19	=19	=19
4d\]	0r	0b-
4c\	.	.
4B-\	.	.
4A\	.	.
2d\	.	.
[2B-\	.	.
=20	=20	=20
4B-\]	0r	1dd
4A\	.	.
4G\	.	.
4F\	.	.
2A\	.	2cc\
[2F\	.	2b-\
=21	=21	=21
4F\]	[0f	0a
4E\	.	.
4D\	.	.
4C/	.	.
2F\	.	.
[2D\	.	.
=22	=22	=22
4D\]	1f]	1r
4C/	.	.
4BB-/	.	.
4AA/	.	.
2D\	1d	1a
2F\	.	.
=23	=23	=23
2E\	0e	1.g
2.C/	.	.
4D\	.	.
4E\	.	2f/
4F\	.	.
=24	=24	=24
2C/	1g	1e
2.E\	.	.
.	2f\	1e
4F\	.	.
4G\	2e\	.
4A\	.	.
=25	=25	=25
1D	0d	0f
2r	.	.
2d\	.	.
=26	=26	=26
4c\	1e	1g
4B-\	.	.
4A\	.	.
4G\	.	.
4F\	1f	1a
4E\	.	.
2D\	.	.
=27	=27	=27
2r	[0g	[0b-
2.G\	.	.
4F\	.	.
2G\	.	.
=28	=28	=28
2E\	1g]	1b-]
2G\	.	.
2D\	1f	1a
[2F\	.	.
=29	=29	=29
4F\]	1f	1a
4E\	.	.
2F\	.	.
2D\	1d	1f
2F\	.	.
=30	=30	=30
2C/	0e	0g
2.c\	.	.
4B-\	.	.
4A\	.	.
4G\	.	.
=31	=31	=31
4F\	0f	1.a
4E\	.	.
2.D\	.	.
4E\	.	.
4F\	.	2b-\
4G\	.	.
=32	=32	=32
2A\	1r	1cc
2.F\	.	.
.	1f	1cc
4G\	.	.
2A\	.	.
=33	=33	=33
4D\	1f	1dd
4E\	.	.
4F\	.	.
4G\	.	.
2A\	2e\	2cc\
2B-\	[2d\	[2b-\
=34	=34	=34
2G\	2d\]	2b-\]
2A\	2c\	2a/
2F\	1A	[1a
2A\	.	.
=35	=35	=35
2E\	0B-	2a/]
2G\	.	4g/
.	.	4f/
2E\	.	1g
2G\	.	.
=36	=36	=36
2D\	0A	0a
2F\	.	.
2D\	.	.
2F\	.	.
=37	=37	=37
2C/	0c	0r
2E\	.	.
2C/	.	.
2E\	.	.
=38	=38	=38
2D\	0d	1.a
2E\	.	.
2F\	.	.
2G\	.	4g/
.	.	4f/
=39	=39	=39
1C	0c	0e
2r	.	.
[2c\	.	.
=40	=40	=40
4c\]	0e	0c
4B-\	.	.
4A\	.	.
4G\	.	.
2.A\	.	.
4G\	.	.
=41	=41	=41
4F\	1r	1r
4E\	.	.
2.F\	.	.
.	1e	1c
4G\	.	.
2A\	.	.
=42	=42	=42
2D\	1f	1d
2.d\	.	.
.	1d	1f
4c\	.	.
2d\	.	.
=43	=43	=43
2A\	0c	0e
2G\	.	.
1A	.	.
=44	=44	=44
4D\	1d	1f
4E\	.	.
4F\	.	.
4G\	.	.
2C/	[1e	[1g
[2c\	.	.
=45	=45	=45
4c\]	2e\]	2g/]
4B-\	.	.
4c\	2d\	2f/
4d\	.	.
2A\	2c\	2e/
2B-\	2B-\	2d/
=46	=46	=46
2A\	0c	0e
4G\	.	.
4F\	.	.
2E\	.	.
2A\	.	.
=47	=47	=47
2B-\	0d	1d
4A\	.	.
4G\	.	.
2F\	.	[1f
[2BB-/	.	.
=48	=48	=48
4BB-/]	2d\	2f/]
4AA/	.	.
4BB-/	2c\	2e/
4C/	.	.
4D\	2B-\	2d/
4C/	.	.
4D\	2A/	2c/
4E\	.	.
=49	=49	=49
*M2/1	*	*
*met(3)	*	*
3F\	0A	0c
3G\	.	.
3A\	.	.
3F\	.	.
3G\	.	.
3A\	.	.
=50	=50	=50
3G\	0B-	0d
3A\	.	.
3B-\	.	.
3G\	.	.
3F\	.	.
3G\	.	.
=51	=51	=51
3C/	0G	0e
3D\	.	.
3E\	.	.
3C/	.	.
3BB-/	.	.
3C/	.	.
=52	=52	=52
3AA/	0A	1r
3BB-/	.	.
3C/	.	.
3D\	.	1f
3E\	.	.
3F\	.	.
=53	=53	=53
3E\	1B-	1g
3F\	.	.
3G\	.	.
3F\	1A	1a
3G\	.	.
3A\	.	.
=54	=54	=54
3G\	1.d	1.b-
3A\	.	.
3B-\	.	.
3G\	.	.
3F\	.	.
.	2c\	2a/
3G\	.	.
=55	=55	=55
3E\	1B-	1g
3F\	.	.
3G\	.	.
3D\	1A	[1f
3E\	.	.
3F\	.	.
=56	=56	=56
*M2/1	*	*
*met(C|)	*	*
2C/	0G	1f]
2BB-/	.	.
1C	.	1e
=57	=57	=57
0Fl	0Fl	0fl
==	==	==
*-	*-	*-
!!!RDF**kern: l=long note in original notation
!!!RDF**kern: i=editorial accidental
!!!ENC: Jesse Rodin; Victoria Chang 2011/05/30/
!!!END: 2011/05/30/
!!!EED: Jesse Rodin
!!!EEV: 2011/08/09/
!!attribution-level@Jos: 2 (slightly less secure)
!!!ONB: Translated from MusicXML and edited on 2011/08/09/ by Craig Sapp
!!muse2ps:  C^@{COM}{/}@{COA}?\n@{SCT}^v100,100,150I150Q16
